UI/Discovery-Sharing/SVG/grid-typeD_outline_24px.svg

<svg xmlns="http://www.w3.org/2000/svg" width="24" height="24" viewBox="0 0 24 24"><rect width="24" height="24" style="fill:none"/><path d="M20,4V8H15V4h5M9,4v8H4V4H9M20,14v6H15V14h5M9,18v2H4V18H9M22,2H13v8h9V2ZM11,2H2V14h9V2ZM22,12H13V22h9V12ZM11,16H2v6h9V16Z"/></svg>

<svg width="24" height="24" viewBox="0 0 24 24" fill="none" xmlns="http://www.w3.org/2000/svg">
<path d="M20 4V8H15V4H20ZM9 4V12H4V4H9ZM20 14V20H15V14H20ZM9 18V20H4V18H9ZM22 2H13V10H22V2ZM11 2H2V14H11V2ZM22 12H13V22H22V12ZM11 16H2V22H11V16Z" fill="#0F1621"/>
</svg>
